papirus/48x48/apps/money-manager-ex.svg

<svg height="48" viewBox="0 0 48 48.000001" width="48" xmlns="http://www.w3.org/2000/svg"><circle cx="24" cy="23.999983" fill="#329c32" r="20.000017"/><path d="m33.648252 17.654943l-6.231163.988282q-.469012-1.189283-.854272-1.64155-.36851-.469008-1.239533-.938025v4.840877q5.092133 1.356793 6.800681 2.864331 2.26131 2.026802 2.26131 5.142382 0 1.825835-.82077 3.350088-.804021 1.524253-2.077059 2.54611-1.25628 1.021772-2.68007 1.49072-1.423787.45231-3.484092.536014v3.165828h-2.445564v-3.165828q-2.462315-.217751-4.003356-.787212-1.52429-.586271-2.64657-1.608042-1.105528-1.021772-1.708544-2.194314-.603016-1.189265-.904525-2.864348l6.767179-.787271q.301508 1.658333.804021 2.395288.519264.737041 1.691795 1.306588v-5.912939q-3.383589-.938025-4.807377-1.624792-1.407037-.686767-2.445565-2.194304-1.038527-1.524296-1.038527-3.701851 0-2.981576 2.077055-4.97488 2.093805-2.010053 6.214414-2.227812v-1.6582904h2.445564v1.6582904q3.752099.234508 5.728652 1.775553 1.993304 1.541037 2.596316 4.221107zm-10.770532-1.67504q-1.072028.351754-1.49079.871019-.418761.519265-.418761 1.222781 0 .737024.418761 1.289787.435512.536015 1.49079.904526zm2.445564 16.482452q1.423787-.318264 2.077055-1.038581.670018-.736955.670018-1.641507 0-.787272-.569515-1.44054-.552765-.670018-2.177558-1.239531z" fill="#fff" opacity=".2"/><path d="m33.648252 16.654948l-6.231163.988282q-.469012-1.189283-.854272-1.64155-.36851-.469008-1.239533-.938025v4.840877q5.092133 1.356793 6.800681 2.864331 2.26131 2.026802 2.26131 5.142382 0 1.825835-.82077 3.350088-.804021 1.524253-2.077059 2.54611-1.25628 1.021772-2.68007 1.49072-1.423787.45231-3.484092.536014v3.165828h-2.445564v-3.165828q-2.462315-.217751-4.003356-.787212-1.52429-.586271-2.64657-1.608042-1.105528-1.021772-1.708544-2.194314-.603016-1.189265-.904525-2.864348l6.767179-.787271q.301508 1.658333.804021 2.395288.519264.737041 1.691795 1.306588v-5.912939q-3.383589-.938025-4.807377-1.624792-1.407037-.686767-2.445565-2.194304-1.038527-1.524296-1.038527-3.701851 0-2.981576 2.077055-4.97488 2.093805-2.010053 6.214414-2.227812v-1.6582904h2.445564v1.6582904q3.752099.234508 5.728652 1.775553 1.993304 1.541037 2.596316 4.221107zm-10.770532-1.67504q-1.072028.351754-1.49079.871019-.418761.519265-.418761 1.222781 0 .737024.418761 1.289787.435512.536015 1.49079.904526zm2.445564 16.482452q1.423787-.318264 2.077055-1.038581.670018-.736955.670018-1.641507 0-.787272-.569515-1.44054-.552765-.670018-2.177558-1.239531z" fill="#262626"/><path d="m24 4a20.000017 20.000017 0 0 0 -19.859375 17.851562 20.000017 18.999983 0 0 1  19.859375-16.851562 20.000017 18.999983 0 0 1  19.921875 17.447266 20.000017 20.000017 0 0 0 -19.921875-18.447266zm19.921875 18.447266a20.000017 20.000017 0 0 1  .078125 1.552734 20.000017 18.999983 0 0 0 -.078125-1.552734zm-39.78125-.595704a20.000017 18.999983 0 0 0 -.048828.392579 20.000017 20.000017 0 0 1  .048828-.392579zm-.048828.392579a20.000017 20.000017 0 0 0 -.091797 1.755859 20.000017 18.999983 0 0 1  .0917969-1.755859z" fill="#fff" opacity=".2"/><path d="m24 44a20.000017 20.000017 0 0 1 -19.859375-17.8516 20.000017 18.999983 0 0 0  19.859375 16.8516 20.000017 18.999983 0 0 0  19.921875-17.4473 20.000017 20.000017 0 0 1 -19.921875 18.4473zm19.921875-18.4473a20.000017 20.000017 0 0 0  .078125-1.5527 20.000017 18.999983 0 0 1 -.07813 1.5527zm-39.78125.5957a20.000017 18.999983 0 0 1 -.048828-.3925 20.000017 20.000017 0 0 0  .048828.3925zm-.048828-.3925a20.000017 20.000017 0 0 1 -.091797-1.7559 20.000017 18.999983 0 0 0  .091797 1.7559z" opacity=".3"/></svg>

<?xml version="1.0" encoding="UTF-8" standalone="no"?>
<svg
   xmlns:dc="http://purl.org/dc/elements/1.1/"
   xmlns:cc="http://creativecommons.org/ns#"
   xmlns:rdf="http://www.w3.org/1999/02/22-rdf-syntax-ns#"
   xmlns:svg="http://www.w3.org/2000/svg"
   xmlns="http://www.w3.org/2000/svg"
   xmlns:sodipodi="http://sodipodi.sourceforge.net/DTD/sodipodi-0.dtd"
   xmlns:inkscape="http://www.inkscape.org/namespaces/inkscape"
   version="1.1"
   id="svg4261"
   viewBox="0 0 48 48.000001"
   height="48"
   width="48"
   inkscape:version="0.91 r13725"
   sodipodi:docname="money-manager-ex.svg">
  <sodipodi:namedview
     pagecolor="#ffffff"
     bordercolor="#666666"
     borderopacity="1"
     objecttolerance="10"
     gridtolerance="10"
     guidetolerance="10"
     inkscape:pageopacity="0"
     inkscape:pageshadow="2"
     inkscape:window-width="1600"
     inkscape:window-height="849"
     id="namedview13"
     showgrid="false"
     inkscape:zoom="7.03"
     inkscape:cx="-8.3389831"
     inkscape:cy="24"
     inkscape:window-x="0"
     inkscape:window-y="0"
     inkscape:window-maximized="1"
     inkscape:current-layer="svg4261" />
  <defs
     id="defs4263" />
  <metadata
     id="metadata4266">
    <rdf:RDF>
      <cc:Work
         rdf:about="">
        <dc:format>image/svg+xml</dc:format>
        <dc:type
           rdf:resource="http://purl.org/dc/dcmitype/StillImage" />
        <dc:title />
      </cc:Work>
    </rdf:RDF>
  </metadata>
  <circle
     style="opacity:1;fill:#329c32;fill-opacity:1;stroke:none;stroke-width:0.2;stroke-miterlimit:4;stroke-dasharray:none;stroke-opacity:1"
     id="path4136"
     cx="24"
     cy="23.999983"
     r="20.000017" />
  <path
     inkscape:connector-curvature="0"
     d="m 33.648252,17.654943 -6.231163,0.988282 q -0.469012,-1.189283 -0.854272,-1.64155 -0.36851,-0.469008 -1.239533,-0.938025 l 0,4.840877 q 5.092133,1.356793 6.800681,2.864331 2.26131,2.026802 2.26131,5.142382 0,1.825835 -0.82077,3.350088 -0.804021,1.524253 -2.077059,2.54611 -1.25628,1.021772 -2.68007,1.49072 -1.423787,0.45231 -3.484092,0.536014 l 0,3.165828 -2.445564,0 0,-3.165828 q -2.462315,-0.217751 -4.003356,-0.787212 -1.52429,-0.586271 -2.64657,-1.608042 -1.105528,-1.021772 -1.708544,-2.194314 -0.603016,-1.189265 -0.904525,-2.864348 l 6.767179,-0.787271 q 0.301508,1.658333 0.804021,2.395288 0.519264,0.737041 1.691795,1.306588 l 0,-5.912939 q -3.383589,-0.938025 -4.807377,-1.624792 -1.407037,-0.686767 -2.445565,-2.194304 -1.038527,-1.524296 -1.038527,-3.701851 0,-2.981576 2.077055,-4.97488 2.093805,-2.010053 6.214414,-2.227812 l 0,-1.6582904 2.445564,0 0,1.6582904 q 3.752099,0.234508 5.728652,1.775553 1.993304,1.541037 2.596316,4.221107 z M 22.87772,15.979903 q -1.072028,0.351754 -1.49079,0.871019 -0.418761,0.519265 -0.418761,1.222781 0,0.737024 0.418761,1.289787 0.435512,0.536015 1.49079,0.904526 l 0,-4.288113 z m 2.445564,16.482452 q 1.423787,-0.318264 2.077055,-1.038581 0.670018,-0.736955 0.670018,-1.641507 0,-0.787272 -0.569515,-1.44054 -0.552765,-0.670018 -2.177558,-1.239531 l 0,5.360159 z"
     id="path4150"
     style="font-style:normal;font-variant:normal;font-weight:normal;font-stretch:normal;font-size:medium;line-height:125%;font-family:'Arial Black';-inkscape-font-specification:'Arial Black, Normal';text-align:start;letter-spacing:0px;word-spacing:0px;writing-mode:lr-tb;text-anchor:start;opacity:0.2;fill:#ffffff;fill-opacity:1;stroke:none;stroke-width:1px;stroke-linecap:butt;stroke-linejoin:miter;stroke-opacity:1" />
  <path
     style="font-style:normal;font-variant:normal;font-weight:normal;font-stretch:normal;font-size:medium;line-height:125%;font-family:'Arial Black';-inkscape-font-specification:'Arial Black, Normal';text-align:start;letter-spacing:0px;word-spacing:0px;writing-mode:lr-tb;text-anchor:start;fill:#262626;fill-opacity:1;stroke:none;stroke-width:1px;stroke-linecap:butt;stroke-linejoin:miter;stroke-opacity:1"
     id="path4143"
     d="m 33.648252,16.654948 -6.231163,0.988282 q -0.469012,-1.189283 -0.854272,-1.64155 -0.36851,-0.469008 -1.239533,-0.938025 l 0,4.840877 q 5.092133,1.356793 6.800681,2.864331 2.26131,2.026802 2.26131,5.142382 0,1.825835 -0.82077,3.350088 -0.804021,1.524253 -2.077059,2.54611 -1.25628,1.021772 -2.68007,1.49072 -1.423787,0.45231 -3.484092,0.536014 l 0,3.165828 -2.445564,0 0,-3.165828 q -2.462315,-0.217751 -4.003356,-0.787212 -1.52429,-0.586271 -2.64657,-1.608042 -1.105528,-1.021772 -1.708544,-2.194314 -0.603016,-1.189265 -0.904525,-2.864348 l 6.767179,-0.787271 q 0.301508,1.658333 0.804021,2.395288 0.519264,0.737041 1.691795,1.306588 l 0,-5.912939 q -3.383589,-0.938025 -4.807377,-1.624792 -1.407037,-0.686767 -2.445565,-2.194304 -1.038527,-1.524296 -1.038527,-3.701851 0,-2.981576 2.077055,-4.97488 2.093805,-2.010053 6.214414,-2.227812 l 0,-1.6582904 2.445564,0 0,1.6582904 q 3.752099,0.234508 5.728652,1.775553 1.993304,1.541037 2.596316,4.221107 z M 22.87772,14.979908 q -1.072028,0.351754 -1.49079,0.871019 -0.418761,0.519265 -0.418761,1.222781 0,0.737024 0.418761,1.289787 0.435512,0.536015 1.49079,0.904526 l 0,-4.288113 z m 2.445564,16.482452 q 1.423787,-0.318264 2.077055,-1.038581 0.670018,-0.736955 0.670018,-1.641507 0,-0.787272 -0.569515,-1.44054 -0.552765,-0.670018 -2.177558,-1.239531 l 0,5.360159 z"
     inkscape:connector-curvature="0" />
  <path
     inkscape:connector-curvature="0"
     style="opacity:0.2;fill:#ffffff;fill-opacity:1;stroke:none;stroke-width:0.2;stroke-miterlimit:4;stroke-dasharray:none;stroke-opacity:1"
     d="M 24,4 A 20.000017,20.000017 0 0 0 4.140625,21.851562 20.000017,18.999983 0 0 1 24,5 20.000017,18.999983 0 0 1 43.921875,22.447266 20.000017,20.000017 0 0 0 24,4 Z M 43.921875,22.447266 A 20.000017,20.000017 0 0 1 44,24 20.000017,18.999983 0 0 0 43.921875,22.447266 Z M 4.140625,21.851562 A 20.000017,18.999983 0 0 0 4.091797,22.244141 20.000017,20.000017 0 0 1 4.140625,21.851562 Z M 4.091797,22.244141 A 20.000017,20.000017 0 0 0 4,24 20.000017,18.999983 0 0 1 4.0917969,22.244141 Z"
     id="circle4149" />
  <path
     inkscape:connector-curvature="0"
     id="path4157"
     d="M 24,44 A 20.000017,20.000017 0 0 1 4.140625,26.1484 20.000017,18.999983 0 0 0 24,43 20.000017,18.999983 0 0 0 43.921875,25.5527 20.000017,20.000017 0 0 1 24,44 Z M 43.921875,25.5527 A 20.000017,20.000017 0 0 0 44,24 20.000017,18.999983 0 0 1 43.92187,25.5527 Z M 4.140625,26.1484 A 20.000017,18.999983 0 0 1 4.091797,25.7559 20.000017,20.000017 0 0 0 4.140625,26.1484 Z M 4.091797,25.7559 A 20.000017,20.000017 0 0 1 4,24 20.000017,18.999983 0 0 0 4.091797,25.7559 Z"
     style="opacity:0.3;fill:#000000;fill-opacity:1;stroke:none;stroke-width:0.2;stroke-miterlimit:4;stroke-dasharray:none;stroke-opacity:1" />
</svg>
